run-fast.svg

<svg fill="currentColor" viewBox="0 0 24 24"><path d="M16.5 5.5a2 2 0 0 0 2-2 2 2 0 0 0-2-2 2 2 0 0 0-2 2 2 2 0 0 0 2 2m-3.6 13.9 1-4.4 2.1 2v6h2v-7.5l-2.1-2 .6-3A7.3 7.3 0 0 0 22 13v-2c-1.76.03-3.4-.89-4.3-2.4l-1-1.6c-.36-.6-1-1-1.7-1-.3 0-.5.1-.8.1L9 8.3V13h2V9.6l1.8-.7-1.6 8.1-4.9-1-.4 2zM4 9a1 1 0 0 1-1-1 1 1 0 0 1 1-1h3v2zm1-4a1 1 0 0 1-1-1 1 1 0 0 1 1-1h5v2zm-2 8a1 1 0 0 1-1-1 1 1 0 0 1 1-1h4v2z"/></svg>

<svg  viewBox="0 0 24 24" fill="currentColor"><path  d="M16.5,5.5A2,2 0 0,0 18.5,3.5A2,2 0 0,0 16.5,1.5A2,2 0 0,0 14.5,3.5A2,2 0 0,0 16.5,5.5M12.9,19.4L13.9,15L16,17V23H18V15.5L15.9,13.5L16.5,10.5C17.89,12.09 19.89,13 22,13V11C20.24,11.03 18.6,10.11 17.7,8.6L16.7,7C16.34,6.4 15.7,6 15,6C14.7,6 14.5,6.1 14.2,6.1L9,8.3V13H11V9.6L12.8,8.9L11.2,17L6.3,16L5.9,18L12.9,19.4M4,9A1,1 0 0,1 3,8A1,1 0 0,1 4,7H7V9H4M5,5A1,1 0 0,1 4,4A1,1 0 0,1 5,3H10V5H5M3,13A1,1 0 0,1 2,12A1,1 0 0,1 3,11H7V13H3Z"/></svg>
